X:1
T:Title
%%score ( 1 2 ) { 3 | 4 }
L:1/8
Q:1/4=102
M:4/4
K:E
V:1 treble nm="Grand Piano, Soprano"
V:2 treble 
V:3 bass nm="Choir Pad, Be a Light for Jesus (Sims)"
V:4 bass 
V:1
 E>[EF] [EG]2 [EG]2 [EF]E | E[EG] [EB]2 [Ec]2 [EB]2 | E>[EF] [EG]2 [EG]2 [B,E][B,E] | %3
w: By~B.~F.~Sims * * * * *|||
 [CE][CE] [DF]6 | E>[EF] [EG]2 [EG]2 [EF]E | E[EG] [EB]2 [Ec]2 [EB]2 | E>[EF] [EG]2 [EG]2 [EF]E | %7
w: ||||
 [EG][DF] E6 | z2 G6 | G>F E2 C>C B,2 | E>[EF] [EG]2 [EG]2 [EB][EG] | [DF][Ec] [DB]6 | %12
w: |||||
 G>B e2- [Be-]>[Ae-] [Ge]2 | [Bd]>[Ac] B-[GB-] [FB-]>[AB-] [GB]2 | [Ac]>[Ac] [GB]2 [EG]2 [EF]E | %15
w: |||
 [EG][DF] E6- | E2 z2 z4 |] %17
w: ||
V:2
 x8 | x8 | x8 | x8 | x8 | x8 | x8 | x8 | E>F E2 E>E E2 | x8 | x8 | x8 | z2 G2 z4 | z2 .G2 z4 | x8 | %15
 x8 | x8 |] %17
V:3
 G,>A, B,2 B,2 A,G, | G,B, G,2 A,2 G,2 | G,>A, B,2 B,2 G,G, | G,G, B,6 | G,>A, B,2 B,2 A,G, | %5
 G,B, G,2 A,2 G,2 | G,>A, B,2 B,2 A,G, | B,A, G,6 | z2 B,2 C>C B,2 | z2 G,2 A,>A, G,2 | %10
 G,>A, B,2 B,2 G,B, | B,^A, B,2 B,>=A, F,2 | z2 B,2 D>C B,2 | z2[K:treble] EE D>F E2 | %14
 E>E E2[K:bass] B,2 A,G, | B,A, G,6- | G,2 z2 z4 |] %17
V:4
 E,>E, E,2 E,2 E,E, | E,E, E,2 E,2 E,2 | E,>E, E,2 E,2 E,E, | C,C, B,,6 | E,>E, E,2 E,2 E,E, | %5
 E,E, E,2 E,2 E,2 | E,>E, E,2 E,2 E,E, | B,,B,, E,6 | z2 E,2 C,>C, E,2 | z2 C,2 A,,>A,, E,2 | %10
 E,>E, E,2 E,2 E,E, | F,F, B,,6 | z2 E,2 E,>E, E,2 | z2 E,E, B,,>B,, E,2 | A,>A, E,2 E,2 E,E, | %15
 B,,B,, E,6- | E,2 z2 z4 |] %17

